X:1
T:Title
%%score { ( 1 3 ) | ( 2 4 ) }
L:1/8
M:6/8
K:Eb
V:1 treble nm="Grand Piano"
V:3 treble 
V:2 bass 
V:4 bass 
V:1
 z3 z2[Q:1/4=100] [GB] | [GB][Gc][Gd] [Ge][Gd][Gc] | [GB][Gc][EG] [FB][FA][DF] | %3
 [CE]2 [CE] [DF]2 [EG] |[M:5/8] [DF]- [DF]3 z |[M:1/8] [AB] |[M:3/4] [GB][Gc] [Gd][Ge] [Gd][Gc] | %7
 [GB][Gc] [EG][CB] [CA][CF] | [B,E]2 [B,E] [DG]2 [DF] |[M:5/8] E- E3 z |[M:1/8] B |[M:3/4] B6 | %12
 B6 | B2 B B2 B | B4 z B | [GB][Gc] [Gd][Ge] [Gd][Gc] | [GB][Gc] [EG][CB] [CA][A,CF] | %17
 [G,B,E]2 [G,B,E] [B,DG]2 [A,DF] |[M:5/8] [G,E]- [G,E]3 z |[M:1/8] [B,GB] |[M:3/4] e4 z2 | %21
 [Ac]4 z2 | [FA]4 z2 | [=A,_G]3 [B,=G]2 [B,GB] | e3 d2 [DFA] | [Ad]4 z2 | [CA]4 z2 | %27
[M:5/8] [G,E]- [G,E]3 z |] %28
V:2
 z3 z2 [E,B,] | [E,B,][E,B,][E,B,] [E,B,][E,B,][E,B,] | [E,B,][E,B,][E,B,] [D,B,][D,B,][B,,B,] | %3
 [C,G,]2 [C,G,] [B,,B,]2 [E,B,] |[M:5/8] [B,,B,]- [B,,B,]3 z |[M:1/8] [B,,B,] | %6
[M:3/4] [E,B,][E,B,] [E,B,][E,B,] [E,B,][E,B,] | [E,B,][E,B,] [E,B,][A,,F,] [A,,F,][A,,A,] | %8
 [B,,G,]2 [B,,G,] [B,,B,]2 [B,,A,] |[M:5/8] [E,G,]- [E,G,]3 z |[M:1/8] z | %11
[M:3/4] z2 [B,D] .[B,D]3 | z2[K:treble] [B,E] [B,E]2 [B,EG] | [B,FA]2 [B,FA] [B,EG]2 [B,EG] | %14
 [B,DF]4 z [B,DA] | [E,E][E,B,] [E,B,][E,B,] [E,B,][E,B,] | [E,B,][E,B,] [E,B,][A,,F,] [A,,F,]A,, | %17
 B,,2 B,, B,,2 B,, |[M:5/8] E,- E,3 z |[M:1/8] E, |[M:3/4] z2 z[K:treble] d2 B, | z2 z G2 B, | %22
 z2 z E2 B,, | E,3 E,2 E, | B,3 B,2 B, | z2 z[K:treble] G2 B, | z2 z B,2 B,, |[M:5/8] E,- E,3 z |] %28
V:3
 x6 | x6 | x6 | x6 |[M:5/8] x5 |[M:1/8] x |[M:3/4] x6 | x6 | x6 |[M:5/8] x5 |[M:1/8] x | %11
[M:3/4] z2 F F2 B | z2 G G2 B | x6 | x6 | x6 | x6 | x6 |[M:5/8] x5 |[M:1/8] x |[M:3/4] A4- A[DFA] | %21
 E3- [EB]3 | B,3- [B,G]2 [B,DF] | E6 | A6 | E3- [EB]3 | D3- [DG]2 [A,DF] |[M:5/8] x5 |] %28
V:4
 x6 | x6 | x6 | x6 |[M:5/8] x5 |[M:1/8] x |[M:3/4] x6 | x6 | x6 |[M:5/8] x5 |[M:1/8] x | %11
[M:3/4] x6 | x2[K:treble] x4 | x6 | x6 | x6 | x6 | x6 |[M:5/8] x5 |[M:1/8] x | %20
[M:3/4] [F,B,]6[K:treble] | E,6 | B,,6 | x6 | F,6 | E,6[K:treble] | B,,6 |[M:5/8] x5 |] %28

